X: 556
T: Desmond's Song
T: a.bran deasmu.ma.
N:"Mournful"
B:O'Neill's 556
Z:Transcribed by J.B. Walsh (walsh@math.ubc.ca)
M:3/4
L:1/8
%Q:80
K:D
(d>c)|(d2 D2) (d>c)|({c}B2 A2) (d>A)|({c}B2 (AF)) (E>D)|D4 (d>c)|
d2 D2 (d>c)|(.B/.c/.d/.e/) Hf2 (d>c)|{c}B2 (AF) (E>D)|D4||
(F>G)|(A>B) d2 f>e|d2  D2 d>c|({c}B2 A>F) (A3/B/c/)|d4 (f>e)|
d2 D2 (d>c)|({c}B2 A2) (d>A)|{c}B2 (AF) (E>D)|D4||


